X: 2
T: The High Level
R: hornpipe
M: 4/4
L: 1/8
K: Fmaj
|:(3def|g2dg ecAF|GdBG D2GF|EcEc DBDB|(3ABA FA GFEc|DBGF EcAF|GdBG D2GF|EGce dBGB|ADFA G2:||:dc|BdFB DFBd|fbdf Bdc=B|ceAc FAce|gf=ef gf_ec|BdFB DFBd|fbdf BdcB|GABc de=ef|gf_ec B2:||:cB|Afcf Afcf|AFAc fcAc|dfBf dfBf|dBdf bfdf|egcg egcg|eceg bgeg|fefa gbeg|fefg f2:|


Tune 2261	Setting 23173

